svg/color/hgt.svg

<?xml version="1.0" encoding="UTF-8" ?>
<!DOCTYPE svg PUBLIC "-//W3C//DTD SVG 1.1//EN" "http://www.w3.org/Graphics/SVG/1.1/DTD/svg11.dtd">
<svg width="250pt" height="250pt" viewBox="0 0 250 250" version="1.1" xmlns="http://www.w3.org/2000/svg">
<g id="#ffffffff">
<path fill="#ffffff" opacity="1.00" d=" M 0.00 0.00 L 250.00 0.00 L 250.00 250.00 L 0.00 250.00 L 0.00 0.00 M 126.26 51.93 C 143.39 58.84 160.34 66.20 177.53 72.94 C 177.56 48.88 177.86 24.80 177.38 0.75 C 160.25 17.72 143.12 34.70 126.26 51.93 M 74.64 0.80 C 74.22 24.84 74.51 48.90 74.49 72.95 C 91.77 66.37 108.66 58.81 125.83 51.95 C 108.92 34.76 91.90 17.65 74.64 0.80 M 2.26 73.53 C 5.26 77.56 9.03 80.89 12.53 84.46 C 25.79 97.79 39.17 110.98 52.34 124.38 C 54.53 121.48 55.90 118.10 57.21 114.75 C 62.77 100.98 68.71 87.36 74.08 73.51 C 50.14 73.43 26.20 73.39 2.26 73.53 M 177.91 73.42 C 183.04 86.29 188.56 98.99 193.78 111.82 C 195.58 116.11 197.26 120.48 199.67 124.48 C 214.95 108.87 230.53 93.56 245.94 78.07 C 247.27 76.73 248.33 75.15 249.34 73.55 C 225.53 73.30 201.72 73.56 177.91 73.42 M 121.52 97.11 C 110.90 98.94 101.56 107.14 98.88 117.66 C 95.64 127.57 99.66 138.84 107.27 145.65 C 112.27 150.47 119.17 152.80 125.98 153.35 C 133.77 152.87 141.51 149.71 146.85 143.91 C 151.89 138.24 154.85 130.56 154.38 122.94 C 153.33 113.01 147.14 103.56 137.91 99.42 C 132.83 97.23 127.03 95.76 121.52 97.11 M 196.93 130.29 C 190.72 145.71 184.13 160.97 178.01 176.43 C 201.77 176.51 225.54 176.61 249.30 176.38 C 247.99 173.86 246.00 171.83 243.99 169.88 C 229.45 155.52 215.14 140.90 200.56 126.59 C 198.56 125.41 197.65 128.92 196.93 130.29 M 12.50 165.50 C 9.06 169.04 5.23 172.26 2.46 176.39 C 26.34 176.58 50.22 176.52 74.10 176.43 C 69.77 164.90 64.75 153.63 60.10 142.22 C 57.62 136.60 55.79 130.66 52.52 125.41 C 39.25 138.84 25.83 152.13 12.50 165.50 M 74.49 177.04 C 74.49 201.03 74.25 225.04 74.62 249.02 C 78.67 245.62 82.22 241.69 86.00 238.00 C 99.28 224.64 112.72 211.43 125.92 197.98 C 108.76 191.05 91.84 183.48 74.49 177.04 M 126.23 198.10 C 141.25 213.31 156.48 228.30 171.51 243.49 C 173.39 245.41 175.35 247.26 177.41 249.00 C 177.80 225.00 177.60 200.99 177.52 176.99 C 160.24 183.55 143.31 191.03 126.23 198.10 Z" />
</g>
<g id="#2b2b2aff">
<path fill="#2b2b2a" opacity="1.00" d=" M 126.26 51.93 C 143.12 34.70 160.25 17.72 177.38 0.75 C 177.86 24.80 177.56 48.88 177.53 72.94 C 160.34 66.20 143.39 58.84 126.26 51.93 Z" />
<path fill="#2b2b2a" opacity="1.00" d=" M 74.64 0.80 C 91.90 17.65 108.92 34.76 125.83 51.95 C 108.66 58.81 91.77 66.37 74.49 72.95 C 74.51 48.90 74.22 24.84 74.64 0.80 Z" />
<path fill="#2b2b2a" opacity="1.00" d=" M 2.26 73.53 C 26.20 73.39 50.14 73.43 74.08 73.51 C 68.71 87.36 62.77 100.98 57.21 114.75 C 55.90 118.10 54.53 121.48 52.34 124.38 C 39.17 110.98 25.79 97.79 12.53 84.46 C 9.03 80.89 5.26 77.56 2.26 73.53 Z" />
<path fill="#2b2b2a" opacity="1.00" d=" M 177.91 73.42 C 201.72 73.56 225.53 73.30 249.34 73.55 C 248.33 75.15 247.27 76.73 245.94 78.07 C 230.53 93.56 214.95 108.87 199.67 124.48 C 197.26 120.48 195.58 116.11 193.78 111.82 C 188.56 98.99 183.04 86.29 177.91 73.42 Z" />
<path fill="#2b2b2a" opacity="1.00" d=" M 121.52 97.11 C 127.03 95.76 132.83 97.23 137.91 99.42 C 147.14 103.56 153.33 113.01 154.38 122.94 C 154.85 130.56 151.89 138.24 146.85 143.91 C 141.51 149.71 133.77 152.87 125.98 153.35 C 119.17 152.80 112.27 150.47 107.27 145.65 C 99.66 138.84 95.64 127.57 98.88 117.66 C 101.56 107.14 110.90 98.94 121.52 97.11 Z" />
<path fill="#2b2b2a" opacity="1.00" d=" M 196.93 130.29 C 197.65 128.92 198.56 125.41 200.56 126.59 C 215.14 140.90 229.45 155.52 243.99 169.88 C 246.00 171.83 247.99 173.86 249.30 176.38 C 225.54 176.61 201.77 176.51 178.01 176.43 C 184.13 160.97 190.72 145.71 196.93 130.29 Z" />
<path fill="#2b2b2a" opacity="1.00" d=" M 12.50 165.50 C 25.83 152.13 39.25 138.84 52.52 125.41 C 55.79 130.66 57.62 136.60 60.10 142.22 C 64.75 153.63 69.77 164.90 74.10 176.43 C 50.22 176.52 26.34 176.58 2.46 176.39 C 5.23 172.26 9.06 169.04 12.50 165.50 Z" />
<path fill="#2b2b2a" opacity="1.00" d=" M 74.49 177.04 C 91.84 183.48 108.76 191.05 125.92 197.98 C 112.72 211.43 99.28 224.64 86.00 238.00 C 82.22 241.69 78.67 245.62 74.62 249.02 C 74.25 225.04 74.49 201.03 74.49 177.04 Z" />
<path fill="#2b2b2a" opacity="1.00" d=" M 126.23 198.10 C 143.31 191.03 160.24 183.55 177.52 176.99 C 177.60 200.99 177.80 225.00 177.41 249.00 C 175.35 247.26 173.39 245.41 171.51 243.49 C 156.48 228.30 141.25 213.31 126.23 198.10 Z" />
</g>
</svg>

<?xml version="1.0" encoding="utf-8"?>
<!-- Generator: Adobe Illustrator 26.0.3, SVG Export Plug-In . SVG Version: 6.00 Build 0)  -->
<svg version="1.1" id="Layer_1" xmlns="http://www.w3.org/2000/svg" xmlns:xlink="http://www.w3.org/1999/xlink" x="0px" y="0px"
	 viewBox="0 0 250 250" style="enable-background:new 0 0 250 250;" xml:space="preserve">
<style type="text/css">
	.st0{fill:#2B2B2A;}
</style>
<g id="_x23_2b2b2aff">
	<path class="st0" d="M126.3,51.9c16.9-17.2,34-34.2,51.1-51.2c0.5,24,0.2,48.1,0.1,72.2C160.3,66.2,143.4,58.8,126.3,51.9z"/>
	<path class="st0" d="M74.6,0.8c17.3,16.9,34.3,34,51.2,51.2c-17.2,6.9-34.1,14.4-51.3,21C74.5,48.9,74.2,24.8,74.6,0.8z"/>
	<path class="st0" d="M2.3,73.5c23.9-0.1,47.9-0.1,71.8,0c-5.4,13.8-11.3,27.5-16.9,41.2c-1.3,3.3-2.7,6.7-4.9,9.6
		C39.2,111,25.8,97.8,12.5,84.5C9,80.9,5.3,77.6,2.3,73.5z"/>
	<path class="st0" d="M177.9,73.4c23.8,0.1,47.6-0.1,71.4,0.1c-1,1.6-2.1,3.2-3.4,4.5c-15.4,15.5-31,30.8-46.3,46.4
		c-2.4-4-4.1-8.4-5.9-12.7C188.6,99,183,86.3,177.9,73.4z"/>
	<path class="st0" d="M121.5,97.1c5.5-1.3,11.3,0.1,16.4,2.3c9.2,4.1,15.4,13.6,16.5,23.5c0.5,7.6-2.5,15.3-7.5,21
		c-5.3,5.8-13.1,9-20.9,9.4c-6.8-0.6-13.7-2.9-18.7-7.7c-7.6-6.8-11.6-18.1-8.4-28C101.6,107.1,110.9,98.9,121.5,97.1z"/>
	<path class="st0" d="M196.9,130.3c0.7-1.4,1.6-4.9,3.6-3.7c14.6,14.3,28.9,28.9,43.4,43.3c2,1.9,4,4,5.3,6.5
		c-23.8,0.2-47.5,0.1-71.3,0C184.1,161,190.7,145.7,196.9,130.3z"/>
	<path class="st0" d="M12.5,165.5c13.3-13.4,26.8-26.7,40-40.1c3.3,5.2,5.1,11.2,7.6,16.8c4.7,11.4,9.7,22.7,14,34.2
		c-23.9,0.1-47.8,0.2-71.6,0C5.2,172.3,9.1,169,12.5,165.5z"/>
	<path class="st0" d="M74.5,177c17.3,6.4,34.3,14,51.4,20.9c-13.2,13.4-26.6,26.7-39.9,40c-3.8,3.7-7.3,7.6-11.4,11
		C74.2,225,74.5,201,74.5,177z"/>
	<path class="st0" d="M126.2,198.1c17.1-7.1,34-14.6,51.3-21.1c0.1,24,0.3,48-0.1,72c-2.1-1.7-4-3.6-5.9-5.5
		C156.5,228.3,141.2,213.3,126.2,198.1z"/>
</g>
</svg>
